X: 95
T:The Merry Blacksmith ***********
M:4/4
L:1/8
Q:150
R:reel
K:D
A2|d2dA BAFA|ABdA BAFA|ABde f2ed|Beed egfe|d2dA BAFA|ABdA BAFA|ABde fdec
|dBAF D2:|\
fg|a2ag f2fe|d2dA BAFA|ABde f2ed|B2 e2 egfe|a2ag f2fe|d2dA BAFA|ABde fde
c|dBAF D2:|

